X:1
T:Title
%%score { 1 | 2 }
L:1/8
Q:1/4=100
M:4/4
K:G
V:1 treble nm="Grand Piano"
V:2 treble 
V:1
 G2 A2 B3 A | c2 A2 F2 D2 | G2 A2 B3 B | e2 d2 [Ec]4 | c2 B2 [CA]3 [CE] | %5
w: from~John~Stainer * * *|||||
 [B,^DG]2 [A,DF]2 [A,DF]2 [G,E]2 | [G,A,E]2 [G,_B,E]2 [G,=B,D]2 [B,DG]2 | [DFB]3 [CFA] [B,DG]4 | %8
w: |||
 [G,E]2 [A,EF]2 [B,EG]2 [G,E]2 | [^DB]3 [DF] F2 G2 | G2 A2 B2 G2 | [Fd]3 [DFc] [DGB]4 | %12
w: ||||
 [B,G]3 [G,B,G] [CA]2 [=FB]2 | [Ec]2 [DEB]2 [CEA]2 [B,EG]2 | [_B,EF]3 [B,EG] [Dd]2 [DB]2 | %15
w: |||
 [Ec]2 [FA]2 [DG]4 |] %16
w: |
V:2
 [G,B,]2 [G,CG]2 [G,DG]3 [G,CG] | [G,EG]2 [G,CE]2 [G,A,D]2 [G,C]2 | %2
 [G,B,D]2 [G,CG]2 [G,DG]3 [G,DG] | [G,A,G]2 [G,B,=F]2[K:bass] [C,C]4 | %4
 [E,^G,E]2 [E,D]2 [A,,E,]3 A,, | B,,2 B,,2 C,2 C,2 | ^C,2 C,2 D,2 D,2 | D,3 D, G,4 | %8
 C,2 C,2 B,,2 B,,2 | [B,,F,]3 [B,,B,] [E,C^D]2 [E,B,E]2 | [E,G,B,]2 [^D,G,^C]2 [=D,G,D]2 [D,B,D]2 | %11
 [D,A,]3 D, G,,4 | E,3 E, [E,G,]2 [D,G,]2 | [C,G,]2 C,2 C,2 C,2 | ^C,3 C, [D,B,]2 [D,G,]2 | %15
 [D,F,]2 [D,C]2 [G,B,]4 |] %16

